svg/u1f3d5.svg

<svg viewBox="0 0 128 128" xmlns="http://www.w3.org/2000/svg">
  <path d="M64.35,80c-14.98-0.52-58,3.66-58,19.16s32.75,24.91,60.61,25.08c27.87,0.17,55.56-9.06,56.61-24.56 C124.61,84.18,79.33,80.52,64.35,80z" fill="#89AF50"/>
  <path d="M62.02,25.24c-1.65-0.14-2.37,1.84-3.47,3.35c-1.37,1.89-3.23,4.54-4.47,5.3 c-1.24,0.76-3.29,1.85-3.02,3.63c0.28,1.79,3.57,2.63,3.57,2.63l-0.83,2.82l-4.33,6.6L42.6,64.7l53.17,10.52 c0,0,14.82-5.41,16.44-7.22c1.17-1.31,1.38-2.34,0.62-4.13c-1.09-2.57-2.68-4.41-4.4-6.96c-1.6-2.37-3.59-5.5-3.59-5.5l1.53-3.25 c0,0,1.45-1.98,1.24-3.97c-0.26-2.48-1.72-3.88-3.16-6.15c-1.44-2.27-3.99-6.18-3.99-6.18L99,28.87c0,0,4.74-0.74,4.39-2.6 c-0.34-1.86-1.78-2.91-2.6-3.94c-0.83-1.03-4.4-5.78-5.92-7.98c-1.51-2.2-3.56-5.11-5.09-5.16c-1.64-0.05-2.84,2-4.49,4.55 s-3.12,4.83-5.03,6.5c-3.1,2.71-6.48,6.04-5,7.64c1.61,1.73,3.99,4.7,3.99,4.7l-1.51,2.22c0,0-1.81,2.48-3.37,4.24 c-1.29,1.46-2.75,3.23-2.75,3.23l-3.3-1.24c0,0,4.62-3.15,4.75-4.13c0.14-1.09,0.02-2.23-2.75-3.51c-2.57-1.19-4.55-4.32-5.38-5.49 C64.11,26.75,63.33,25.35,62.02,25.24z" fill="#4DA852"/>
  <path d="M91.56,30.13c3.27-0.26,3.83-2.63,7.23-3.81c3.06-1.06,4.64,0.02,4.64,0.02s0.28,1.02-0.75,2.34 c-0.62,0.79-1.6,1.35-1.79,2.26c-0.19,0.9,0.1,1.81,0.1,1.81s-4.33,4.33-8.75,4.33s-4.16-2.18-8.42-2.9 c-3.38-0.57-6.85,1.71-6.85,1.71s0.71-2.26,0.55-3.32c-0.42-2.78-2.24-4.68-2.24-4.68s2.4-1.46,5.92-0.99S88.56,30.36,91.56,30.13z" fill="#367C2D"/>
  <path d="M62.64,39.64c3.78,0.05,3.14-1.95,5.95-2.66c2.39-0.61,4.5-0.55,4.5-0.55s0.01,1.52-0.8,2.53 c-0.61,0.76-0.96,1.05-1.01,1.95s0.54,1.82,0.54,1.82s-1.28-0.52-3.57,0.71c-1.35,0.73-2.32,2.76-5.76,2.85 c-2.85,0.08-3.48-1.01-6.9-1.71c-2.09-0.43-3.23,0.57-3.23,0.57s1.62-2.41,1.38-3.74c-0.24-1.33-2.12-2.12-2.36-3.07 c1.19-0.48,2.31-0.57,4.6-0.42C59.69,38.16,58.92,39.59,62.64,39.64z" fill="#367C2D"/>
  <path d="M74.8,49.47l-1.18-2.46c0,0,1.46,0,2.78-0.82c1.32-0.82,2.46-2.14,4.69-1.82s3.87,4.14,9.33,4.14 c4.55,0,4.92-3.28,9.65-3.23c5.04,0.05,6.42,2.69,6.42,2.69s-0.88,1.69-0.83,3.06s1.33,3.7,1.33,3.7s-3.55-1.34-6.05-1.25 c-2.5,0.09-5.92,3.87-10.88,3.51c-5.06-0.37-6.1-3.64-9.74-4.55c-3.64-0.91-4.64,0.05-4.64,0.05L74.8,49.47z" fill="#367C2D"/>
  <path d="M85.63,64.09c3.46,0.09,3.91,2.39,7.19,2.2c3.28-0.18,3.8-2.33,7.85-2.24s5.45,2.43,8.04,2.68 c2.95,0.28,4.5-0.44,4.5-0.44s0.01,0.8-1.22,2.44c-1.23,1.64-3.64,3.73-3.64,3.73l-19.67,0.36L85.63,64.09z" fill="#367C2D"/>
  <path d="M93.28,83.22c0,0,3.99,10.61,10.03,11.68c6.04,1.07,9.96,1.06,13.95,0.08 c3.99-0.97,6.1-4.76,5.71-8.55s-5.06-6.42-6.91-8.37s-7.01-9.73-14.5-10.71c-7.89-1.02-13.53,5.35-13.53,5.35L93.28,83.22z" fill="#484E27"/>
  <path d="M26.51,69.01c0,0-5.16-0.49-8.08,1.85s-3.7,5.84-6.42,7.59c-2.73,1.75-5.36,1.46-7.4,4.19 c-1.93,2.58-1.69,6.5-0.35,8.76c1.8,3.05,3.74,3.51,7.71,3.82c3.79,0.3,9.87,0.37,9.87,0.37L26.51,69.01z" fill="#484E27"/>
  <path d="M77.12,62.67l-9.68,36.71l6.48,0.21c0,0,5.06-0.44,8.23-0.79c3.17-0.35,8.17-1.16,8.17-1.16 l5.9-11.29L77.12,62.67z" fill="#2F2F2F"/>
  <path d="M15.41,94.89l-1.41-1.23c0,0,0.79-3.52,4.23-12.59s7.75-19.72,9.33-23.06 c1.58-3.35,2.99-7.92,3.7-8.45c0.7-0.53,9.15-1.06,18.49-1.32s26.14,0.09,26.67,0.35c0.53,0.26-0.53,7.75-0.53,7.75L60.22,99.65 l-29.75-2.82L15.41,94.89z" fill="#F19F40"/>
  <radialGradient id="SVGID_1_" cx="90.0443" cy="101.2686" gradientUnits="userSpaceOnUse" r="30.4724">
    <stop offset="0.4232" stop-color="#F3AE3D"/>
    <stop offset="0.54" stop-color="#F2A53C"/>
    <stop offset="0.7325" stop-color="#F08C38"/>
    <stop offset="0.9756" stop-color="#EC6333"/>
    <stop offset="1" stop-color="#EC5F32"/>
  </radialGradient>
  <path d="M54.34,101.66c0,0,3.85,0.09,7.73-0.17c3.87-0.26,13.24-1.01,13.86-1.54 c0.62-0.53,0.31-10.61,0.67-18.27c0.35-7.66,0.49-14.35,0.92-15.45c0.33-0.84,11.84,32.09,11.84,32.09l13.82-2.46 c0,0-8.12-15.69-11.99-22.47s-13.17-24.94-14.71-24.9c-1.1,0.02-9.42,18.69-11.87,24.5c-2.95,6.98-5.89,14.93-7.91,20.6 C55.09,98.09,54.34,101.66,54.34,101.66z" fill="url(#SVGID_1_)"/>
  <path d="M58.18,97.29c-0.08,1.93-0.34,4.13-1.24,4.68c-0.89,0.55-18.56-1.99-25.84-2.89 c-7.7-0.95-17.17-3.07-17.59-3.55c-0.41-0.48-0.05-3.3,0.64-3.99c0.69-0.69,0.84,1.62,0.84,1.62s11.14,2.2,16.11,2.72 c7.84,0.83,20.64,2.54,22.09,2.13c1.44-0.41,2.22-4.59,3.5-4.41C57.97,93.78,58.25,95.7,58.18,97.29z" fill="#9C2D1B"/>
  <path d="M77.7,65.81c-0.21-0.44-0.55,0.79,0.08,3.7c0.54,2.48,9.83,29.22,9.97,29.43 c0.14,0.21,4.19-0.21,4.19-0.21l8.32-3.09l-9.9-8.87l-7.08-11C83.28,75.76,77.85,66.15,77.7,65.81z" fill="#9C2D1B"/>
  <path d="M100.38,98.19c0,0-7.29-5.98-8.99-7.92c-5.1-5.8-7.91-11.96-8.53-13.06 c-0.62-1.1-4.97-10.06-5.18-10.68c-0.21-0.62,0-1.38,0.62-0.41c0.62,0.96,3.48,6.46,5.86,10.2c0.58,0.9,5.48,8.06,6.74,9.42 c5.32,5.75,10.93,9.42,10.93,9.42L100.38,98.19z" fill="#EA4133"/>
  <path d="M88.3,105.95l-0.96,2.54c0,0-0.14,1.31,0.07,1.58c0.21,0.28,12.51-0.07,12.51-0.07 s-0.14,1.93,0.41,2.41c0.55,0.48,7.22,0.41,7.49,0.07c0.28-0.34,0.34-2.75,0.34-2.75s3.99,0.21,4.4,0.07c0.41-0.14,0-3.51,0-3.51 l-4.47-3.37L88.3,105.95z" fill="#A05C3C"/>
  <path d="M87.75,100.66l-0.41,7.84l12.45-0.28c0,0,0.07-2.75,0.28-2.89c0.49-0.33,7.84-0.83,8.18-0.41 c0.34,0.41,0.21,3.16,0.21,3.16l4.26-0.21c0,0,0-5.36-0.21-5.5c-0.21-0.14-18.15-1.51-19.87-1.58 C90.91,100.72,87.68,100.17,87.75,100.66z" fill="#C67C5D"/>
  <radialGradient id="SVGID_2_" cx="99.1811" cy="105.5462" gradientUnits="userSpaceOnUse" r="16.613">
    <stop offset="0.0386" stop-color="#FFFFFF"/>
    <stop offset="0.1486" stop-color="#FDF4DF"/>
    <stop offset="0.3968" stop-color="#FADD9B"/>
    <stop offset="0.6051" stop-color="#F7CB6A"/>
    <stop offset="0.7625" stop-color="#F6C14B"/>
    <stop offset="0.851" stop-color="#F5BD40"/>
  </radialGradient>
  <path d="M104.94,81.4c0,0-3.62,5.95-8.32,9.97c-2.61,2.23-4.68,5.02-4.47,8.73 c0.16,2.86,2.89,5.18,6.94,5.36c9.14,0.41,10.45-5.02,10.93-8.25c0.48-3.23,0.05-10.99-0.07-11.21c-0.31-0.57-1.81,2.39-3.09,3.85 c-1.44,1.65-3.23,3.03-3.23,3.03s1.62-4.18,1.87-7.01C105.74,83.2,105.62,81.06,104.94,81.4z" fill="url(#SVGID_2_)"/>
  <path d="M63.84,15.34c-1.21-0.89-3.05-0.64-3.92,0.77c-0.87,1.41-0.54,3.31,0.92,4.02 c1.46,0.7,2.72,0.24,3.48-0.73S65.38,16.47,63.84,15.34z" fill="#FFFFFF"/>
  <path d="M70.02,14.19c-0.83,0.86-0.67,2.07,0.06,2.77c0.73,0.7,2.07,0.42,2.58-0.1 c0.73-0.73,0.77-2.14,0-2.81C72.05,13.52,70.95,13.23,70.02,14.19z" opacity="0.56" fill="#FFFFFF"/>
  <path d="M43.82,4.25c-1.59-0.1-2.55,1.47-2.49,2.58c0.06,1.12,0.76,2.52,2.71,2.55 c2.26,0.03,2.52-2.3,2.33-3.16C46.25,5.7,45.86,4.38,43.82,4.25z" fill="#FFFFFF"/>
  <path d="M7.02,44.09c0.48,1.26,2,2.15,3.6,1.35c1.58-0.79,1.62-2.51,0.96-3.73 c-0.66-1.22-2.41-1.29-3.37-0.83C7.25,41.35,6.49,42.7,7.02,44.09z" fill="#FFFFFF"/>
  <path d="M111.27,24.58c-0.86,1.27-0.89,2.87,0.16,3.79c1.05,0.92,2.99,0.83,4.01-0.57 c0.96-1.31,0.73-2.83-0.25-3.79S112.13,23.31,111.27,24.58z" fill="#FFFFFF"/>
  <path d="M97.95,5.23c-0.81,0.86-1.12,2.43-0.03,3.38c0.92,0.8,2.45,0.61,3.18-0.35 c0.73-0.96,0.45-2.42-0.19-3.09C100.28,4.49,98.88,4.24,97.95,5.23z" fill="#FFFFFF"/>
  <path d="M29.67,25.15c0,0,1.18-3.63,1.83-3.75c0.65-0.12,2.08,3.75,2.08,3.75s3.06,0.16,3.3,0.82 c0.24,0.65-2.28,2.61-2.28,2.61s0.98,3.38,0.57,3.71c-0.41,0.33-3.71-1.75-3.71-1.75s-2.73,2.61-3.5,2.2 c-0.77-0.41,0.57-4.08,0.57-4.08s-2.65-1.71-2.69-2.65S29.67,25.15,29.67,25.15z" fill="#FFFFFF"/>
</svg>

<svg viewBox="0 0 128 128" xmlns="http://www.w3.org/2000/svg">
  <defs>
    <radialGradient id="SVGID_1_" cx="90.0443" cy="101.2686" gradientUnits="userSpaceOnUse" r="30.4724">
      <stop offset="0.4232" stop-color="#F3AE3D"/>
      <stop offset="0.54" stop-color="#F2A53C"/>
      <stop offset="0.7325" stop-color="#F08C38"/>
      <stop offset="0.9756" stop-color="#EC6333"/>
      <stop offset="1" stop-color="#EC5F32"/>
    </radialGradient>
    <radialGradient id="SVGID_2_" cx="99.1811" cy="105.5462" gradientUnits="userSpaceOnUse" r="16.613">
      <stop offset="0.0386" stop-color="#FFFFFF"/>
      <stop offset="0.1486" stop-color="#FDF4DF"/>
      <stop offset="0.3968" stop-color="#FADD9B"/>
      <stop offset="0.6051" stop-color="#F7CB6A"/>
      <stop offset="0.7625" stop-color="#F6C14B"/>
      <stop offset="0.851" stop-color="#F5BD40"/>
    </radialGradient>
  </defs>
  <path d="M64.35,80 C49.37,79.48 6.35,83.66 6.35,99.16 C6.35,114.66 39.1,124.07 66.96,124.24 C94.83,124.41 122.52,115.18 123.57,99.68 C124.61,84.18 79.33,80.52 64.35,80 Z" fill="#89AF50"/>
  <path d="M62.02,25.24 C60.37,25.1 59.65,27.08 58.55,28.59 C57.18,30.48 55.32,33.13 54.08,33.89 C52.84,34.65 50.79,35.74 51.06,37.52 C51.34,39.31 54.63,40.15 54.63,40.15 L53.8,42.97 L49.47,49.57 L42.6,64.7 L95.77,75.22 C95.77,75.22 110.59,69.81 112.21,68 C113.38,66.69 113.59,65.66 112.83,63.87 C111.74,61.3 110.15,59.46 108.43,56.91 C106.83,54.54 104.84,51.41 104.84,51.41 L106.37,48.16 C106.37,48.16 107.82,46.18 107.61,44.19 C107.35,41.71 105.89,40.31 104.45,38.04 C103.01,35.77 100.46,31.86 100.46,31.86 L99,28.87 C99,28.87 103.74,28.13 103.39,26.27 C103.05,24.41 101.61,23.36 100.79,22.33 C99.96,21.3 96.39,16.55 94.87,14.35 C93.36,12.15 91.31,9.24 89.78,9.19 C88.14,9.14 86.94,11.19 85.29,13.74 C83.64,16.29 82.17,18.57 80.26,20.24 C77.16,22.95 73.78,26.28 75.26,27.88 C76.87,29.61 79.25,32.58 79.25,32.58 L77.74,34.8 C77.74,34.8 75.93,37.28 74.37,39.04 C73.08,40.5 71.62,42.27 71.62,42.27 L68.32,41.03 C68.32,41.03 72.94,37.88 73.07,36.9 C73.21,35.81 73.09,34.67 70.32,33.39 C67.75,32.2 65.77,29.07 64.94,27.9 C64.11,26.75 63.33,25.35 62.02,25.24 Z" fill="#4DA852"/>
  <path d="M91.56,30.13 C94.83,29.87 95.39,27.5 98.79,26.32 C101.85,25.26 103.43,26.34 103.43,26.34 C103.43,26.34 103.71,27.36 102.68,28.68 C102.06,29.47 101.08,30.03 100.89,30.94 C100.7,31.84 100.99,32.75 100.99,32.75 C100.99,32.75 96.66,37.08 92.24,37.08 C87.82,37.08 88.08,34.9 83.82,34.18 C80.44,33.61 76.97,35.89 76.97,35.89 C76.97,35.89 77.68,33.63 77.52,32.57 C77.1,29.79 75.28,27.89 75.28,27.89 C75.28,27.89 77.68,26.43 81.2,26.9 C84.72,27.37 88.56,30.36 91.56,30.13 Z" fill="#367C2D"/>
  <path d="M62.64,39.64 C66.42,39.69 65.78,37.69 68.59,36.98 C70.98,36.37 73.09,36.43 73.09,36.43 C73.09,36.43 73.1,37.95 72.29,38.96 C71.68,39.72 71.33,40.01 71.28,40.91 C71.23,41.81 71.82,42.73 71.82,42.73 C71.82,42.73 70.54,42.21 68.25,43.44 C66.9,44.17 65.93,46.2 62.49,46.29 C59.64,46.37 59.01,45.28 55.59,44.58 C53.5,44.15 52.36,45.15 52.36,45.15 C52.36,45.15 53.98,42.74 53.74,41.41 C53.5,40.08 51.62,39.29 51.38,38.34 C52.57,37.86 53.69,37.77 55.98,37.92 C59.69,38.16 58.92,39.59 62.64,39.64 Z" fill="#367C2D"/>
  <path d="M74.8,49.47 L73.62,47.01 C73.62,47.01 75.08,47.01 76.4,46.19 C77.72,45.37 78.86,44.05 81.09,44.37 C83.32,44.69 84.96,48.51 90.42,48.51 C94.97,48.51 95.34,45.23 100.07,45.28 C105.11,45.33 106.49,47.97 106.49,47.97 C106.49,47.97 105.61,49.66 105.66,51.03 C105.71,52.4 106.99,54.73 106.99,54.73 C106.99,54.73 103.44,53.39 100.94,53.48 C98.44,53.57 95.02,57.35 90.06,56.99 C85,56.62 83.96,53.35 80.32,52.44 C76.68,51.53 75.68,52.49 75.68,52.49 L74.8,49.47 Z" fill="#367C2D"/>
  <path d="M85.63,64.09 C89.09,64.18 89.54,66.48 92.82,66.29 C96.1,66.11 96.62,63.96 100.67,64.05 C104.72,64.14 106.12,66.48 108.71,66.73 C111.66,67.01 113.21,66.29 113.21,66.29 C113.21,66.29 113.22,67.09 111.99,68.73 C110.76,70.37 108.35,72.46 108.35,72.46 L88.68,72.82 L85.63,64.09 Z" fill="#367C2D"/>
  <path d="M93.28,83.22 C93.28,83.22 97.27,93.83 103.31,94.9 C109.35,95.97 113.27,95.96 117.26,94.98 C121.25,94.01 123.36,90.22 122.97,86.43 C122.58,82.64 117.91,80.01 116.06,78.06 C114.21,76.11 109.05,68.33 101.56,67.35 C93.67,66.33 88.03,72.7 88.03,72.7 L93.28,83.22 Z" fill="#484E27"/>
  <path d="M26.51,69.01 C26.51,69.01 21.35,68.52 18.43,70.86 C15.51,73.2 14.73,76.7 12.01,78.45 C9.28,80.2 6.65,79.91 4.61,82.64 C2.68,85.22 2.92,89.14 4.26,91.4 C6.06,94.45 8,94.91 11.97,95.22 C15.76,95.52 21.84,95.59 21.84,95.59 L26.51,69.01 Z" fill="#484E27"/>
  <path d="M77.12,62.67 L67.44,99.38 L73.92,99.59 C73.92,99.59 78.98,99.15 82.15,98.8 C85.32,98.45 90.32,97.64 90.32,97.64 L96.22,86.35 L77.12,62.67 Z" fill="#2F2F2F"/>
  <path d="M15.41,94.89 L14,93.66 C14,93.66 14.79,90.14 18.23,81.07 C21.67,72 25.98,61.35 27.56,58.01 C29.14,54.66 30.55,50.09 31.26,49.56 C31.96,49.03 40.41,48.5 49.75,48.24 C59.09,47.98 75.89,48.33 76.42,48.59 C76.95,48.85 75.89,56.34 75.89,56.34 L60.22,99.65 L30.47,96.83 L15.41,94.89 Z" fill="#F19F40"/>
  <path d="M54.34,101.66 C54.34,101.66 58.19,101.75 62.07,101.49 C65.94,101.23 75.31,100.48 75.93,99.95 C76.55,99.42 76.24,89.34 76.6,81.68 C76.95,74.02 77.09,67.33 77.52,66.23 C77.85,65.39 89.36,98.32 89.36,98.32 L103.18,95.86 C103.18,95.86 95.06,80.17 91.19,73.39 C87.32,66.61 78.02,48.45 76.48,48.49 C75.38,48.51 67.06,67.18 64.61,72.99 C61.66,79.97 58.72,87.92 56.7,93.59 C55.09,98.09 54.34,101.66 54.34,101.66 Z" fill="url(#SVGID_1_)"/>
  <path d="M58.18,97.29 C58.1,99.22 57.84,101.42 56.94,101.97 C56.05,102.52 38.38,99.98 31.1,99.08 C23.4,98.13 13.93,96.01 13.51,95.53 C13.1,95.05 13.46,92.23 14.15,91.54 C14.84,90.85 14.99,93.16 14.99,93.16 C14.99,93.16 26.13,95.36 31.1,95.88 C38.94,96.71 51.74,98.42 53.19,98.01 C54.63,97.6 55.41,93.42 56.69,93.6 C57.97,93.78 58.25,95.7 58.18,97.29 Z" fill="#9C2D1B"/>
  <path d="M77.7,65.81 C77.49,65.37 77.15,66.6 77.78,69.51 C78.32,71.99 87.61,98.73 87.75,98.94 C87.89,99.15 91.94,98.73 91.94,98.73 L100.26,95.64 L90.36,86.77 L83.28,75.77 C83.28,75.76 77.85,66.15 77.7,65.81 Z" fill="#9C2D1B"/>
  <path d="M100.38,98.19 C100.38,98.19 93.09,92.21 91.39,90.27 C86.29,84.47 83.48,78.31 82.86,77.21 C82.24,76.11 77.89,67.15 77.68,66.53 C77.47,65.91 77.68,65.15 78.3,66.12 C78.92,67.08 81.78,72.58 84.16,76.32 C84.74,77.22 89.64,84.38 90.9,85.74 C96.22,91.49 101.83,95.16 101.83,95.16 L100.38,98.19 Z" fill="#EA4133"/>
  <path d="M88.3,105.95 L87.34,108.49 C87.34,108.49 87.2,109.8 87.41,110.07 C87.62,110.35 99.92,110 99.92,110 C99.92,110 99.78,111.93 100.33,112.41 C100.88,112.89 107.55,112.82 107.82,112.48 C108.1,112.14 108.16,109.73 108.16,109.73 C108.16,109.73 112.15,109.94 112.56,109.8 C112.97,109.66 112.56,106.29 112.56,106.29 L108.09,102.92 L88.3,105.95 Z" fill="#A05C3C"/>
  <path d="M87.75,100.66 L87.34,108.5 L99.79,108.22 C99.79,108.22 99.86,105.47 100.07,105.33 C100.56,105 107.91,104.5 108.25,104.92 C108.59,105.33 108.46,108.08 108.46,108.08 L112.72,107.87 C112.72,107.87 112.72,102.51 112.51,102.37 C112.3,102.23 94.36,100.86 92.64,100.79 C90.91,100.72 87.68,100.17 87.75,100.66 Z" fill="#C67C5D"/>
  <path d="M104.94,81.4 C104.94,81.4 101.32,87.35 96.62,91.37 C94.01,93.6 91.94,96.39 92.15,100.1 C92.31,102.96 95.04,105.28 99.09,105.46 C108.23,105.87 109.54,100.44 110.02,97.21 C110.5,93.98 110.07,86.22 109.95,86 C109.64,85.43 108.14,88.39 106.86,89.85 C105.42,91.5 103.63,92.88 103.63,92.88 C103.63,92.88 105.25,88.7 105.5,85.87 C105.74,83.2 105.62,81.06 104.94,81.4 Z" fill="url(#SVGID_2_)"/>
  <path d="M63.84,15.34 C62.63,14.45 60.79,14.7 59.92,16.11 C59.05,17.52 59.38,19.42 60.84,20.13 C62.3,20.83 63.56,20.37 64.32,19.4 C65.08,18.43 65.38,16.47 63.84,15.34 Z" fill="#FFFFFF"/>
  <path d="M70.02,14.19 C69.19,15.05 69.35,16.26 70.08,16.96 C70.81,17.66 72.15,17.38 72.66,16.86 C73.39,16.13 73.43,14.72 72.66,14.05 C72.05,13.52 70.95,13.23 70.02,14.19 Z" fill="#FFFFFF" opacity="0.56"/>
  <path d="M43.82,4.25 C42.23,4.15 41.27,5.72 41.33,6.83 C41.39,7.95 42.09,9.35 44.04,9.38 C46.3,9.41 46.56,7.08 46.37,6.22 C46.25,5.7 45.86,4.38 43.82,4.25 Z" fill="#FFFFFF"/>
  <path d="M7.02,44.09 C7.5,45.35 9.02,46.24 10.62,45.44 C12.2,44.65 12.24,42.93 11.58,41.71 C10.92,40.49 9.17,40.42 8.21,40.88 C7.25,41.35 6.49,42.7 7.02,44.09 Z" fill="#FFFFFF"/>
  <path d="M111.27,24.58 C110.41,25.85 110.38,27.45 111.43,28.37 C112.48,29.29 114.42,29.2 115.44,27.8 C116.4,26.49 116.17,24.97 115.19,24.01 C114.21,23.05 112.13,23.31 111.27,24.58 Z" fill="#FFFFFF"/>
  <path d="M97.95,5.23 C97.14,6.09 96.83,7.66 97.92,8.61 C98.84,9.41 100.37,9.22 101.1,8.26 C101.83,7.3 101.55,5.84 100.91,5.17 C100.28,4.49 98.88,4.24 97.95,5.23 Z" fill="#FFFFFF"/>
  <path d="M29.67,25.15 C29.67,25.15 30.85,21.52 31.5,21.4 C32.15,21.28 33.58,25.15 33.58,25.15 C33.58,25.15 36.64,25.31 36.88,25.97 C37.12,26.62 34.6,28.58 34.6,28.58 C34.6,28.58 35.58,31.96 35.17,32.29 C34.76,32.62 31.46,30.54 31.46,30.54 C31.46,30.54 28.73,33.15 27.96,32.74 C27.19,32.33 28.53,28.66 28.53,28.66 C28.53,28.66 25.88,26.95 25.84,26.01 C25.8,25.07 29.67,25.15 29.67,25.15 Z" fill="#FFFFFF"/>
</svg>
